; generated by PrusaSlicer 2.7.1+win64 on 2024-04-09 at 14:32:42 UTC

; 

; external perimeters extrusion width = 0.40mm
; perimeters extrusion width = 0.40mm
; infill extrusion width = 0.40mm
; solid infill extrusion width = 0.80mm
; top infill extrusion width = 0.40mm
; first layer extrusion width = 0.40mm

;TYPE:Custom
G92 E0 ; Reset Extruder
M104 S200 ; set temperature
G28 ; Home all axes
M190 S60 ; set bed temperature and wait for it to be reached
M109 S200 ; set temperature and wait

G1 Z2.0 F3000 ; Move Z Axis up little to prevent scratching of Heat Bed
G1 X0.1 Y20 Z0.3 F5000.0 ; Move to start position
G1 X0.1 Y200.0 Z0.3 F1500.0 E15 ; Draw the first line
G1 X0.4 Y200.0 Z0.3 F5000.0 ; Move to side a little
G1 X0.4 Y20 Z0.3 F1500.0 E30 ; Draw the second line
G92 E0 ; Reset Extruder
G1 Z2.0 F3000 ; Move Z Axis up little to prevent scratching of Heat Bed
G1 X5 Y20 Z0.3 F5000.0 ; Move over to prevent blob squish
G92 E0
G92 E0
G1 F1800 E-0.3
G21 ; set units to millimeters
G90 ; use absolute coordinates
M82 ; use absolute distances for extrusion
G92 E0
; Filament gcode
M107
;LAYER_CHANGE
;Z:0.2
;HEIGHT:0.2
G1 E-3 F600
G92 E0
G1 Z.2
G1 X114.084 Y114.097 F6000
G1 Z.2 F600
G1 E3
;TYPE:Perimeter
;WIDTH:0.399999
G1 F840.15
G1 X114.196 Y114.001 E3.00508
G1 X114.286 Y113.757 E3.01404
G1 X114.254 Y113.507 E3.02272
G1 X114.134 Y113.322 E3.03031
G1 X111.859 Y111.027 E3.14161
G1 X111.816 Y110.648 E3.15475
G1 X111.697 Y110.447 E3.1628
G1 X111.036 Y109.743 E3.19606
G1 X111.124 Y109.096 E3.21855
G1 X111.901 Y108.402 E3.25443
G1 X114.361 Y107.43 E3.34553
G1 X114.491 Y107.444 E3.35003
G1 X114.742 Y107.33 E3.35952
G1 X114.932 Y107.105 E3.36966
G1 X116.61 Y105.311 E3.45426
G1 X118.549 Y105.684 E3.52227
G1 X118.949 Y105.856 E3.53727
G1 X119.907 Y110.644 E3.70545
G1 X120.061 Y110.861 E3.71461
G1 X121.098 Y111.722 E3.76103
G1 X121.341 Y111.787 E3.76969
G1 X124.039 Y111.847 E3.86264
G1 X125.16 Y112.018 E3.9017
G1 X125.446 Y113.3 E3.94694
G1 X126.374 Y116.844 E4.07312
G1 X126.568 Y117.514 E4.09714
G1 X127.302 Y118.807 E4.14835
G1 X127.105 Y120.281 E4.19957
G1 X126.691 Y123.376 E4.30712
G1 X126.636 Y124.137 E4.3334
G1 X126.356 Y124.353 E4.34558
G1 X125.93 Y125.413 E4.38493
G1 X123.372 Y129.198 E4.54227
G1 X122.054 Y130.556 E4.60745
G1 X119.78 Y131.236 E4.6892
G1 X117.954 Y131.641 E4.75362
G1 X114.508 Y130.185 E4.88247
G1 X113.697 Y129.663 E4.91569
G1 X113.471 Y129.581 E4.92397
G1 X112.86 Y129.508 E4.94516
G1 X112.294 Y129.203 E4.9673
G1 X110.548 Y126.718 E5.0719
G1 X109.907 Y123.892 E5.17171
G1 X109.388 Y120.964 E5.27413
G1 X109.16 Y118.882 E5.34627
G1 X113.172 Y114.718 E5.54542
G1 X113.966 Y114.2 E5.57807
G1 X114.039 Y114.136 E5.58141
G1 X113.851 Y113.848 F6000
;TYPE:External perimeter
G1 F840.15
G1 X113.931 Y113.718 E5.58667
G1 X113.88 Y113.573 E5.59196
G1 X111.513 Y111.185 E5.70776
G1 X111.484 Y110.8 E5.72106
G1 X111.436 Y110.691 E5.72516
G1 X110.66 Y109.863 E5.76424
G1 X110.788 Y108.917 E5.79712
G1 X111.711 Y108.094 E5.83971
G1 X114.272 Y107.081 E5.93457
G1 X114.485 Y107.074 E5.94191
G1 X116.484 Y104.923 E6.04305
G1 X118.735 Y105.357 E6.12201
G1 X119.265 Y105.611 E6.14225
G1 X120.232 Y110.487 E6.31346
G1 X120.292 Y110.588 E6.31751
G1 X121.238 Y111.388 E6.36018
G1 X121.349 Y111.43 E6.36427
G1 X124.07 Y111.49 E6.45801
G1 X125.455 Y111.702 E6.50627
G1 X125.791 Y113.209 E6.55945
G1 X126.878 Y117.338 E6.70651
G1 X127.672 Y118.735 E6.76185
G1 X127.459 Y120.329 E6.81724
G1 X127.047 Y123.402 E6.92403
G1 X126.976 Y124.373 E6.95756
G1 X126.727 Y124.488 E6.96701
G1 X126.635 Y124.585 E6.97161
G1 X126.249 Y125.58 E7.00837
G1 X123.65 Y129.424 E7.16819
G1 X122.245 Y130.871 E7.23766
G1 X119.87 Y131.582 E7.32305
G1 X117.92 Y132.015 E7.39185
G1 X114.341 Y130.502 E7.52568
G1 X113.428 Y129.936 E7.56268
G1 X112.751 Y129.854 E7.58617
G1 X112.05 Y129.478 E7.61357
G1 X110.216 Y126.866 E7.72349
G1 X109.556 Y123.962 E7.82606
G1 X109.034 Y121.015 E7.92914
G1 X108.787 Y118.754 E8.00748
G1 X112.943 Y114.441 E8.21377
G1 X113.801 Y113.881 E8.24906
;WIPE_START
G1 F4800
G1 X113.851 Y113.848 E8.24195
G1 X113.931 Y113.718 E8.22382
G1 X113.88 Y113.573 E8.20557
G1 X111.513 Y111.185 E7.80629
G1 X111.484 Y110.8 E7.76044
G1 X111.436 Y110.691 E7.7463
G1 X110.66 Y109.863 E7.61154
G1 X110.788 Y108.917 E7.49818
G1 X111.711 Y108.094 E7.35133
G1 X114.272 Y107.081 E7.02428
G1 X114.485 Y107.074 E6.99897
G1 X116.484 Y104.923 E6.65027
G1 X118.735 Y105.357 E6.37804
G1 X119.265 Y105.611 E6.30825
G1 X120.232 Y110.487 E5.71795
G1 X120.292 Y110.588 E5.704
G1 X121.238 Y111.388 E5.55688
G1 X121.349 Y111.43 E5.54279
G1 X123.822 Y111.485 E5.24906
;WIPE_END
G92 E0
G1 Z.5 F600
G1 X119.664 Y110.012 F6000
G1 Z.2 F600
G1 E3
;TYPE:Solid infill
;WIDTH:0.405848
G1 F826.61
G1 X116.008 Y106.355 E3.18102
G1 X116.254 Y106.088 E3.19373
G1 X119.333 Y109.167 E3.34616
G1 X119.206 Y108.527 E3.369
G1 X116.501 Y105.822 E3.50291
G1 X116.705 Y105.602 E3.51341
G1 X116.816 Y105.624 E3.51737
G1 X119.079 Y107.887 E3.6294
G1 X118.952 Y107.246 E3.65228
G1 X117.452 Y105.746 E3.72654
G1 X118.087 Y105.868 E3.74918
G1 X119.029 Y106.81 E3.79581
;WIPE_START
G1 F4800
G1 X118.087 Y105.868 E3.63761
G1 X117.452 Y105.746 E3.56082
G1 X118.952 Y107.246 E3.30891
G1 X119.079 Y107.887 E3.23131
G1 X116.816 Y105.624 E2.85127
G1 X116.705 Y105.602 E2.83783
G1 X116.501 Y105.822 E2.8022
G1 X119.206 Y108.527 E2.34793
G1 X119.333 Y109.167 E2.27045
G1 X116.254 Y106.088 E1.75337
G1 X116.008 Y106.355 E1.71026
G1 X119.664 Y110.012 E1.0962
;WIPE_END
G1 E.79581 F600
G92 E0
G1 Z.5
G1 X125.284 Y113.065 F6000
G1 Z.2 F600
G1 E3
G1 F826.61
G1 X124.39 Y112.171 E3.04426
G1 X124.016 Y112.114 E3.0575
G1 X123.816 Y112.11 E3.0645
G1 X125.227 Y113.521 E3.13435
G1 X125.409 Y114.217 E3.15953
G1 X123.291 Y112.098 E3.26441
G1 X122.766 Y112.086 E3.28279
G1 X125.591 Y114.912 E3.42267
G1 X125.774 Y115.608 E3.44786
G1 X122.241 Y112.075 E3.62276
G1 X121.716 Y112.063 E3.64114
G1 X125.956 Y116.303 E3.85105
G1 X126.138 Y116.999 E3.87623
G1 X121.173 Y112.033 E4.12205
G1 X120.971 Y111.959 E4.12958
G1 X120.838 Y111.868 E4.13522
G1 X119.883 Y111.061 E4.17899
G1 X119.717 Y110.866 E4.18795
G1 X119.62 Y110.616 E4.19734
G1 X119.587 Y110.447 E4.20337
G1 X115.761 Y106.621 E4.39278
G1 X115.514 Y106.888 E4.40551
G1 X126.416 Y117.79 E4.94522
G1 X127.025 Y118.861 E4.98835
G1 X127.019 Y118.906 E4.98994
G1 X115.267 Y107.154 E5.57173
G1 X115.021 Y107.421 E5.58444
G1 X126.958 Y119.359 E6.17542
G1 X126.898 Y119.811 E6.19138
G1 X114.73 Y107.644 E6.79374
G1 X114.53 Y107.711 E6.80112
G1 X114.411 Y107.698 E6.80531
G1 X114.311 Y107.738 E6.80908
G1 X126.837 Y120.264 E7.42919
G1 X126.776 Y120.716 E7.44516
G1 X113.943 Y107.883 E8.08047
G1 X113.575 Y108.029 E8.09433
G1 X126.716 Y121.169 E8.74486
G1 X126.655 Y121.622 E8.76086
G1 X113.207 Y108.174 E9.42662
G1 X112.84 Y108.319 E9.44043
G1 X126.594 Y122.074 E10.12136
G1 X126.534 Y122.527 E10.13736
G1 X112.472 Y108.465 E10.83351
G1 X112.104 Y108.61 E10.84736
G1 X126.473 Y122.98 E11.55874
G1 X126.419 Y123.439 E11.57492
G1 X111.817 Y108.837 E12.29781
G1 X111.546 Y109.079 E12.31053
G1 X126.383 Y123.916 E13.04505
G1 X126.378 Y123.993 E13.04775
G1 X126.153 Y124.199 E13.05843
G1 X111.353 Y109.399 E13.79112
G1 X111.319 Y109.652 E13.80006
G1 X111.899 Y110.27 E13.82973
G1 X112.072 Y110.563 E13.84164
G1 X112.082 Y110.641 E13.84439
G1 X125.987 Y124.546 E14.53277
G1 X125.841 Y124.913 E14.5466
G1 X114.551 Y113.624 E15.1055
G1 X114.533 Y113.895 E15.11501
G1 X114.468 Y114.054 E15.12102
G1 X125.695 Y125.281 E15.67682
G1 X125.489 Y125.588 E15.68976
G1 X114.238 Y114.337 E16.24675
G1 X113.928 Y114.541 E16.25974
G1 X125.282 Y125.894 E16.82181
G1 X125.075 Y126.201 E16.83477
G1 X113.619 Y114.745 E17.40191
G1 X113.316 Y114.955 E17.41482
G1 X124.868 Y126.507 E17.98671
G1 X124.661 Y126.813 E17.99964
G1 X113.064 Y115.216 E18.57376
G1 X112.812 Y115.477 E18.58646
G1 X124.454 Y127.119 E19.16281
G1 X124.247 Y127.426 E19.17577
G1 X112.56 Y115.739 E19.75435
G1 X112.308 Y116 E19.76705
G1 X124.04 Y127.732 E20.34785
G1 X123.833 Y128.038 E20.36078
G1 X112.056 Y116.262 E20.94379
G1 X111.805 Y116.523 E20.95647
G1 X123.626 Y128.344 E21.54168
G1 X123.419 Y128.65 E21.55461
G1 X111.553 Y116.784 E22.14205
G1 X111.301 Y117.046 E22.15478
G1 X123.212 Y128.957 E22.74445
G1 X122.97 Y129.228 E22.75717
G1 X111.049 Y117.307 E23.34733
G1 X110.797 Y117.569 E23.36006
G1 X122.717 Y129.488 E23.95015
G1 X122.464 Y129.749 E23.96287
G1 X110.545 Y117.83 E24.55293
G1 X110.293 Y118.091 E24.56563
G1 X122.211 Y130.009 E25.15564
G1 X121.959 Y130.27 E25.16834
G1 X110.041 Y118.353 E25.75833
G1 X109.79 Y118.614 E25.77101
G1 X121.59 Y130.415 E26.35521
G1 X121.195 Y130.533 E26.36964
G1 X109.538 Y118.876 E26.94673
G1 X109.44 Y118.977 E26.95166
G1 X109.478 Y119.329 E26.96405
G1 X120.8 Y130.651 E27.52456
G1 X120.405 Y130.769 E27.53899
G1 X109.541 Y119.906 E28.0768
G1 X109.604 Y120.482 E28.09708
G1 X120.01 Y130.888 E28.61224
G1 X119.609 Y131 E28.62681
G1 X109.678 Y121.069 E29.11845
G1 X109.789 Y121.693 E29.14064
G1 X119.189 Y131.093 E29.606
G1 X118.769 Y131.186 E29.62106
G1 X109.899 Y122.317 E30.06015
G1 X110.01 Y122.941 E30.08234
G1 X118.349 Y131.279 E30.49515
G1 X117.979 Y131.361 E30.50842
G1 X117.873 Y131.316 E30.51245
G1 X110.121 Y123.564 E30.89622
G1 X110.254 Y124.211 E30.91934
G1 X116.984 Y130.941 E31.25252
G1 X116.095 Y130.565 E31.28631
G1 X110.404 Y124.875 E31.56802
G1 X110.555 Y125.539 E31.59186
G1 X115.206 Y130.189 E31.82209
G1 X114.634 Y129.947 E31.84383
G1 X114.137 Y129.634 E31.86439
G1 X110.706 Y126.203 E32.03424
G1 X110.798 Y126.607 E32.04874
G1 X111.271 Y127.281 E32.07756
G1 X113.462 Y129.472 E32.18603
;LAYER_CHANGE
;Z:0.36
;HEIGHT:0.16
;WIPE_START
G1 F4800
G1 X111.271 Y127.281 E31.81808
G1 X110.798 Y126.607 E31.7203
G1 X110.706 Y126.203 E31.6711
G1 X114.137 Y129.634 E31.09491
G1 X114.634 Y129.947 E31.02516
G1 X115.206 Y130.189 E30.95141
G1 X110.555 Y125.539 E30.17041
G1 X110.404 Y124.875 E30.08955
G1 X115.784 Y130.255 E29.18603
;WIPE_END
G92 E0
G1 Z.36 F600
G1 Z.66
G1 X114.252 Y113.66 F6000
G1 Z.36 F600
G1 E3
;TYPE:Perimeter
;WIDTH:0.399999
G1 F1025.534
G1 X114.253 Y113.58 E3.00226
G1 X114.11 Y113.326 E3.01048
G1 X111.979 Y111.176 E3.09589
G1 X111.933 Y110.709 E3.10913
G1 X111.805 Y110.481 E3.11651
G1 X110.942 Y109.562 E3.15208
G1 X110.974 Y109.322 E3.15891
G1 X111.964 Y108.438 E3.19636
G1 X114.118 Y107.587 E3.26171
G1 X114.4 Y107.657 E3.26991
G1 X114.662 Y107.589 E3.27755
G1 X114.834 Y107.44 E3.28397
G1 X115.155 Y107.019 E3.29891
G1 X116.671 Y105.399 E3.36151
G1 X118.479 Y105.747 E3.41346
G1 X118.97 Y105.983 E3.42883
G1 X119.759 Y109.959 E3.5432
G1 X119.868 Y110.467 E3.55786
G1 X120.026 Y110.69 E3.56557
G1 X121.224 Y111.688 E3.60957
G1 X121.477 Y111.757 E3.61697
G1 X123.774 Y111.808 E3.6818
G1 X125.177 Y112.022 E3.72184
G1 X125.531 Y113.608 E3.76769
G1 X126.354 Y116.752 E3.85939
G1 X126.505 Y117.256 E3.87424
G1 X127.391 Y118.815 E3.92484
G1 X127.153 Y120.592 E3.97543
G1 X126.917 Y122.351 E4.02551
G1 X126.81 Y123.161 E4.04856
G1 X126.738 Y124.146 E4.07643
G1 X126.613 Y124.203 E4.08031
G1 X126.386 Y124.397 E4.08874
G1 X126.331 Y124.503 E4.09211
G1 X125.878 Y125.669 E4.12741
G1 X123.603 Y129.035 E4.24204
G1 X121.999 Y130.687 E4.30701
G1 X120.127 Y131.247 E4.36214
G1 X117.925 Y131.736 E4.42578
G1 X115.078 Y130.533 E4.51299
G1 X113.979 Y129.826 E4.54986
G1 X113.748 Y129.742 E4.5568
G1 X112.898 Y129.64 E4.58096
G1 X112.071 Y129.195 E4.60746
G1 X110.59 Y127.088 E4.68013
G1 X109.817 Y123.684 E4.77862
G1 X109.408 Y121.375 E4.84478
G1 X109.131 Y118.839 E4.91676
G1 X112.962 Y114.862 E5.07257
G1 X114.125 Y114.082 E5.11208
G1 X114.252 Y113.846 E5.11964
G1 X114.252 Y113.72 E5.1232
G1 X113.82 Y113.865 F6000
;TYPE:External perimeter
G1 F1025.534
G1 X113.902 Y113.728 E5.12771
G1 X113.85 Y113.584 E5.13203
G1 F1040.709
G1 X111.624 Y111.338 E5.22125
G1 F1025.534
G1 X111.587 Y110.843 E5.23526
G1 X111.538 Y110.732 E5.23868
G1 F1766.123
G1 X110.556 Y109.685 E5.27918
G1 F2125.348
G1 X110.63 Y109.139 E5.29473
G1 F1025.534
G1 X111.77 Y108.122 E5.33784
G1 X114.12 Y107.193 E5.40914
G1 X114.398 Y107.291 E5.41746
G1 X114.543 Y107.219 E5.42203
G1 X114.875 Y106.782 E5.43752
G1 X116.542 Y105.001 E5.50635
G1 X118.595 Y105.396 E5.56534
G1 X119.293 Y105.732 E5.5872
G1 X120.183 Y110.219 E5.71627
G1 X120.262 Y110.411 E5.72213
G1 X121.372 Y111.348 E5.76312
G1 X121.485 Y111.391 E5.76653
G1 X123.806 Y111.443 E5.83204
G1 X125.48 Y111.698 E5.87982
G1 X125.885 Y113.515 E5.93235
G1 X126.519 Y115.939 E6.00305
G1 X126.823 Y117.076 E6.03626
G1 X127.77 Y118.741 E6.09031
G1 X127.516 Y120.64 E6.14437
G1 X127.175 Y123.188 E6.2169
G1 X127.087 Y124.388 E6.25085
G1 X126.766 Y124.535 E6.26081
G1 X126.672 Y124.635 E6.26468
G1 X126.204 Y125.84 E6.30115
G1 X123.887 Y129.266 E6.41785
G1 X122.195 Y131.01 E6.48641
G1 X120.219 Y131.601 E6.5446
G1 X117.89 Y132.119 E6.61192
G1 X114.906 Y130.858 E6.70333
G1 X114.373 Y130.514 E6.72123
G1 F1330.85
G1 X113.704 Y130.105 E6.74335
G1 F1722.76
G1 X112.786 Y129.995 E6.76944
G1 F2393.284
G1 X111.821 Y129.476 E6.80036
G1 F2861.444
G1 X110.25 Y127.239 E6.87749
G1 F1588.22
G1 X109.459 Y123.756 E6.97827
G1 F1025.534
G1 X109.046 Y121.427 E7.04501
G1 X108.749 Y118.709 E7.12216
G1 X112.27 Y115.054 E7.26536
G1 X112.727 Y114.579 E7.28396
G1 X113.77 Y113.898 E7.31911
;WIPE_START
G1 F4800
G1 X113.82 Y113.865 E7.312
G1 X113.902 Y113.728 E7.29304
;WIPE_END
G1 E4.31911 F600
G92 E0
G1 Z.66
G1 X113.54 Y108.192 F6000
G1 Z.36 F600
G1 E3
;TYPE:Solid infill
;WIDTH:0.536956
G1 F746.091
G1 X113.495 Y108.148 E3.00244
G1 X113.434 Y108.164 E3.00489
G1 X113.418 Y108.225 E3.00734
G1 X113.463 Y108.269 E3.00978
G1 X113.523 Y108.253 E3.01219
;WIDTH:0.580797
G1 F686.234
G1 X113.426 Y108.305 E3.01683
;WIDTH:0.624637
G1 F635.269
G1 X113.328 Y108.356 E3.02186
;WIDTH:0.668478
G1 F591.351
G1 X113.23 Y108.408 E3.02729
;WIDTH:0.712318
G1 F553.112
G1 X113.133 Y108.46 E3.03305
;WIDTH:0.756159
G1 F519.518
G1 X113.035 Y108.512 E3.03923
;WIDTH:0.799999
G1 F489.772
G1 X112.937 Y108.564 E3.04578
G1 X111.76 Y109.741 E3.14412
G1 X111.694 Y109.706 E3.14853
;WIDTH:0.750834
G1 F523.379
G1 X111.628 Y109.672 E3.15263
;WIDTH:0.701668
G1 F561.939
G1 X111.562 Y109.637 E3.15648
;WIDTH:0.652502
G1 F606.633
G1 X111.496 Y109.603 E3.16002
;WIDTH:0.603337
G1 F659.05
G1 X111.43 Y109.568 E3.1633
;WIDTH:0.554171
G1 F721.383
G1 X111.364 Y109.534 E3.16628
;WIDTH:0.505006
G1 F796.738
G1 X111.298 Y109.499 E3.16899
;WIDTH:0.45584
G1 F889.672
G1 X111.232 Y109.465 E3.1714
;WIDTH:0.406674
G1 F1007.149
G1 X112.095 Y108.649 E3.20552
G1 X112.256 Y110.328 F6000
;WIDTH:0.799999
G1 F489.772
G1 X114.458 Y108.126 E3.3895
G1 X114.548 Y108.066 E3.39589
;WIDTH:0.757187
G1 F518.78
G1 X114.638 Y108.006 E3.40192
;WIDTH:0.714374
G1 F551.44
G1 X114.729 Y107.946 E3.40764
;WIDTH:0.671562
G1 F588.489
G1 X114.819 Y107.886 E3.41296
;WIDTH:0.628749
G1 F630.875
G1 X114.909 Y107.826 E3.41792
;WIDTH:0.585937
G1 F679.84
G1 X114.999 Y107.766 E3.42252
;WIDTH:0.580004
G1 F687.231
G1 X115.222 Y107.517 E3.43659
;WIDTH:0.616884
G1 F643.724
G1 X115.445 Y107.268 E3.45162
;WIDTH:0.64962
G1 F609.475
G1 X116.131 Y106.559 E3.49846
;WIDTH:0.682356
G1 F578.686
G1 X116.817 Y105.85 E3.54779
;WIDTH:0.799999
G1 F489.772
G1 X117.605 Y106.061 E3.59599
G1 X112.569 Y111.098 E4.01681
G1 X113.108 Y111.642 E4.06205
G1 X118.478 Y106.272 E4.51073
G1 X118.712 Y107.12 E4.5627
G1 X113.647 Y112.185 E4.9859
G1 X114.186 Y112.729 E5.03114
G1 X118.892 Y108.024 E5.4243
G1 X119.071 Y108.927 E5.47869
G1 X114.661 Y113.337 E5.84716
G1 X114.64 Y113.397 E5.85092
;WIDTH:0.752703
G1 F522.017
G1 X114.619 Y113.457 E5.85444
;WIDTH:0.705408
G1 F558.808
G1 X114.598 Y113.517 E5.85773
;WIDTH:0.658112
G1 F601.178
G1 X114.577 Y113.578 E5.86084
;WIDTH:0.610816
G1 F650.5
G1 X114.556 Y113.638 E5.86367
;WIDTH:0.56352
G1 F708.639
G1 X114.535 Y113.698 E5.86627
;WIDTH:0.516224
G1 F778.19
G1 X114.515 Y113.758 E5.86862
;WIDTH:0.468928
G1 F862.879
G1 X114.494 Y113.818 E5.87075
;WIDTH:0.421632
G1 F968.252
G1 X114.473 Y113.878 E5.87265
;WIDTH:0.374336
G1 F1102.941
G1 X114.165 Y114.27 E5.88573
;WIDTH:0.411219
G1 F995.004
G1 X113.659 Y114.682 E5.90471
;WIDTH:0.448102
G1 F906.309
G1 X113.153 Y115.093 E5.92552
G1 X111.272 Y117.011 E6.01129
;WIDTH:0.411219
G1 F995.004
